dist/files/navbar_indentAutomation.svg

<svg width="43" height="52" viewBox="0 0 43 52" fill="none" xmlns="http://www.w3.org/2000/svg">
<path fill-rule="evenodd" clip-rule="evenodd" d="M21.5036 32.3444C17.741 32.3444 14.6943 29.2999 14.6943 25.5088C14.6943 21.7476 17.741 18.7031 21.5036 18.7031C25.267 18.7031 28.3437 21.7476 28.3437 25.5088C28.3437 29.2999 25.267 32.3444 21.5036 32.3444ZM21.5036 20.0464C18.4877 20.0464 16.0383 22.4943 16.0383 25.5088C16.0383 28.5232 18.4877 30.9711 21.5036 30.9711C24.5203 30.9711 26.9697 28.5232 26.9697 25.5088C26.9697 22.4943 24.5203 20.0464 21.5036 20.0464Z" fill="#000066"/>
<mask id="mask0_5327_2465" style="mask-type:luminance" maskUnits="userSpaceOnUse" x="0" y="3" width="23" height="41">
<path d="M0 3.87109H22.3392V43.4121H0V3.87109Z" fill="white"/>
</mask>
<g mask="url(#mask0_5327_2465)">
<path fill-rule="evenodd" clip-rule="evenodd" d="M9.76667 43.3868C9.61734 43.3868 9.49802 43.3568 9.3787 43.2675C3.5247 39.2377 0 32.6114 0 25.5071C0 13.6571 9.64735 4.01562 21.504 4.01562C21.8927 4.01562 22.1913 4.31429 22.1913 4.70226C22.1913 5.09024 21.8927 5.3889 21.504 5.3889C10.424 5.3889 1.37401 14.4331 1.37401 25.5071C1.37401 32.1634 4.65934 38.3725 10.1546 42.1329C10.4533 42.3422 10.5434 42.7895 10.334 43.0882C10.1847 43.2675 9.97603 43.3868 9.76667 43.3868Z" fill="#000066"/>
</g>
<mask id="mask1_5327_2465" style="mask-type:luminance" maskUnits="userSpaceOnUse" x="20" y="0" width="8" height="10">
<path d="M20.6523 0H27.9609V9.49143H20.6523V0Z" fill="white"/>
</mask>
<g mask="url(#mask1_5327_2465)">
<path fill-rule="evenodd" clip-rule="evenodd" d="M21.504 9.36425C21.4147 9.36425 21.2954 9.33424 21.2054 9.30423C20.9667 9.18491 20.8174 8.94627 20.8174 8.67761V0.738073C20.8174 0.46942 20.9667 0.260061 21.2054 0.140741C21.4147 0.0214208 21.7134 0.0214209 21.9227 0.170754L27.5674 4.14052C27.7467 4.28986 27.836 4.49848 27.836 4.70784C27.836 4.94648 27.7467 5.15511 27.5674 5.27516L21.9227 9.24493C21.8027 9.33424 21.6534 9.36425 21.504 9.36425ZM22.1914 2.05133V7.36436L25.984 4.70784L22.1914 2.05133Z" fill="#000066"/>
</g>
<mask id="mask2_5327_2465" style="mask-type:luminance" maskUnits="userSpaceOnUse" x="20" y="7" width="24" height="41">
<path d="M20.6528 7.60938H43.0081V47.1504H20.6528V7.60938Z" fill="white"/>
</mask>
<g mask="url(#mask2_5327_2465)">
<path fill-rule="evenodd" clip-rule="evenodd" d="M21.504 47.0003C21.1461 47.0003 20.8174 46.7016 20.8174 46.3436C20.8174 45.9557 21.1461 45.657 21.504 45.657C32.6147 45.657 41.664 36.6128 41.664 25.5087C41.664 18.8825 38.3787 12.6434 32.8833 8.91227C32.5547 8.67363 32.4954 8.25565 32.704 7.95698C32.9134 7.62903 33.3313 7.56901 33.66 7.77837C39.514 11.7782 43.008 18.4345 43.008 25.5087C43.008 37.3588 33.3614 47.0003 21.504 47.0003Z" fill="#000066"/>
</g>
<mask id="mask3_5327_2465" style="mask-type:luminance" maskUnits="userSpaceOnUse" x="15" y="41" width="8" height="11">
<path d="M15.0308 41.5391H22.3393V51.0217H15.0308V41.5391Z" fill="white"/>
</mask>
<g mask="url(#mask3_5327_2465)">
<path fill-rule="evenodd" clip-rule="evenodd" d="M21.5036 51.0028C21.3843 51.0028 21.235 50.9428 21.1157 50.8535L15.471 46.8837C15.2917 46.7644 15.1724 46.5551 15.1724 46.3464C15.1724 46.1078 15.2917 45.8984 15.471 45.7791L21.1157 41.8094C21.325 41.66 21.5937 41.63 21.8323 41.7493C22.0417 41.8686 22.191 42.108 22.191 42.3467V50.3162C22.191 50.5548 22.0417 50.7935 21.8323 50.9135C21.743 50.9728 21.6237 51.0028 21.5036 51.0028ZM17.0537 46.3464L20.817 49.003V43.6899L17.0537 46.3464Z" fill="#000066"/>
</g>
<path fill-rule="evenodd" clip-rule="evenodd" d="M23.6246 40.047H19.4133C19.0854 40.047 18.7867 39.8083 18.7267 39.4797L17.98 34.8533C16.9647 34.4653 16.0387 33.928 15.2027 33.2414L10.812 34.9126C10.5133 35.0326 10.1546 34.8833 9.97603 34.6146L7.88537 30.9728C7.70603 30.6741 7.76532 30.2862 8.0347 30.0775L11.678 27.1224C11.5887 26.6151 11.5287 26.0477 11.5287 25.5104C11.5287 24.9731 11.5887 24.4358 11.678 23.8985L8.0347 20.9433C7.76532 20.7347 7.70603 20.376 7.88537 20.0781L9.97603 16.4363C10.1546 16.1376 10.5133 16.0183 10.812 16.1376L15.2027 17.8095C16.0387 17.1229 16.9647 16.5856 17.98 16.1976L18.7267 11.5705C18.7867 11.2425 19.0854 11.0039 19.4133 11.0039H23.6246C23.9533 11.0039 24.252 11.2425 24.282 11.5705L25.0287 16.1976C26.044 16.5856 27 17.1229 27.836 17.8095L32.1966 16.1376C32.5253 16.0183 32.8833 16.1376 33.0326 16.4363L35.1533 20.0781C35.3026 20.376 35.2426 20.7347 34.9739 20.9433L31.3599 23.8985C31.45 24.4358 31.48 24.9731 31.48 25.5104C31.48 26.0477 31.45 26.5851 31.3599 27.1224L34.9739 30.0775C35.2426 30.2862 35.3026 30.6741 35.1533 30.9728L33.0326 34.6146C32.8833 34.8833 32.5253 35.0026 32.1966 34.8833L27.836 33.2414C27 33.928 26.044 34.4653 25.0287 34.8533L24.282 39.4797C24.252 39.8083 23.9533 40.047 23.6246 40.047ZM19.9813 38.6737H23.0273L23.744 34.2267C23.804 33.9873 23.9833 33.7787 24.222 33.6894C25.3273 33.3307 26.3426 32.7341 27.2386 31.9281C27.418 31.7788 27.6866 31.7187 27.9253 31.8088L32.1666 33.4207L33.66 30.7935L30.1653 27.9283C29.9867 27.779 29.8966 27.5103 29.9566 27.2717C30.046 26.7044 30.106 26.107 30.106 25.5104C30.106 24.9431 30.046 24.3465 29.9566 23.7792C29.8966 23.5105 29.9867 23.2719 30.1653 23.0926L33.66 20.2567L32.1666 17.6302L27.9253 19.2421C27.6866 19.3314 27.418 19.2721 27.2386 19.0928C26.3426 18.3168 25.3273 17.7195 24.222 17.3615C23.9833 17.2722 23.804 17.0629 23.744 16.8242L23.0273 12.3765H19.9813L19.264 16.8242C19.2347 17.0629 19.0553 17.2722 18.816 17.3615C17.6813 17.7195 16.666 18.3168 15.8 19.0928C15.5907 19.2721 15.322 19.3314 15.0826 19.2421L10.872 17.6302L9.34869 20.2567L12.8426 23.0926C13.052 23.2719 13.1413 23.5105 13.082 23.7792C12.9627 24.3465 12.9027 24.9431 12.9027 25.5104C12.9027 26.107 12.9627 26.7044 13.082 27.2717C13.1413 27.5103 13.052 27.779 12.8426 27.9283L9.34869 30.7935L10.872 33.4207L15.0826 31.8088C15.322 31.7187 15.5907 31.7788 15.8 31.9281C16.666 32.7341 17.6813 33.3307 18.816 33.6894C19.0553 33.7787 19.2347 33.9873 19.264 34.2267L19.9813 38.6737Z" fill="#000066"/>
</svg>

<svg xmlns="http://www.w3.org/2000/svg" width="43" height="52" fill="none"><path fill="#006" fill-rule="evenodd" d="M21.504 32.344c-3.763 0-6.81-3.044-6.81-6.835a6.805 6.805 0 0 1 6.81-6.806c3.763 0 6.84 3.045 6.84 6.806 0 3.79-3.077 6.835-6.84 6.835Zm0-12.298a5.467 5.467 0 0 0-5.466 5.463 5.467 5.467 0 0 0 10.932 0 5.467 5.467 0 0 0-5.466-5.463Z" clip-rule="evenodd"/><mask id="a" width="23" height="41" x="0" y="3" maskUnits="userSpaceOnUse" style="mask-type:luminance"><path fill="#fff" d="M0 3.871h22.34v39.541H0V3.872Z"/></mask><g mask="url(#a)"><path fill="#006" fill-rule="evenodd" d="M9.767 43.387a.6.6 0 0 1-.388-.12C3.525 39.237 0 32.611 0 25.507 0 13.657 9.647 4.016 21.504 4.016c.389 0 .687.298.687.686a.676.676 0 0 1-.687.687c-11.08 0-20.13 9.044-20.13 20.118a20.135 20.135 0 0 0 8.78 16.626c.3.21.39.656.18.955-.15.18-.358.299-.567.299Z" clip-rule="evenodd"/></g><mask id="b" width="8" height="10" x="20" y="0" maskUnits="userSpaceOnUse" style="mask-type:luminance"><path fill="#fff" d="M20.652 0h7.309v9.491h-7.309V0Z"/></mask><g mask="url(#b)"><path fill="#006" fill-rule="evenodd" d="M21.504 9.364c-.09 0-.209-.03-.299-.06a.696.696 0 0 1-.388-.626V.738c0-.269.15-.478.388-.597a.69.69 0 0 1 .718.03l5.644 3.97c.18.149.269.357.269.567 0 .238-.09.447-.269.567l-5.644 3.97a.69.69 0 0 1-.419.12Zm.687-7.313v5.313l3.793-2.656-3.793-2.657Z" clip-rule="evenodd"/></g><mask id="c" width="24" height="41" x="20" y="7" maskUnits="userSpaceOnUse" style="mask-type:luminance"><path fill="#fff" d="M20.653 7.61h22.355v39.54H20.653V7.61Z"/></mask><g mask="url(#c)"><path fill="#006" fill-rule="evenodd" d="M21.504 47c-.358 0-.687-.298-.687-.656 0-.388.33-.687.687-.687 11.11 0 20.16-9.044 20.16-20.148a20.084 20.084 0 0 0-8.78-16.597.685.685 0 0 1-.18-.955c.21-.328.627-.388.956-.179a21.493 21.493 0 0 1 9.348 17.73C43.008 37.359 33.361 47 21.504 47Z" clip-rule="evenodd"/></g><mask id="d" width="8" height="11" x="15" y="41" maskUnits="userSpaceOnUse" style="mask-type:luminance"><path fill="#fff" d="M15.03 41.54h7.31v9.482h-7.31v-9.483Z"/></mask><g mask="url(#d)"><path fill="#006" fill-rule="evenodd" d="M21.504 51.003a.704.704 0 0 1-.388-.15l-5.645-3.97a.667.667 0 0 1-.299-.537.68.68 0 0 1 .299-.567l5.645-3.97c.209-.149.478-.179.716-.06.21.12.359.359.359.598v7.97c0 .238-.15.477-.359.596a.604.604 0 0 1-.328.09Zm-4.45-4.657 3.763 2.657V43.69l-3.763 2.656Z" clip-rule="evenodd"/></g><path fill="#006" fill-rule="evenodd" d="M23.625 40.047h-4.212a.703.703 0 0 1-.686-.567l-.747-4.627a9.935 9.935 0 0 1-2.777-1.612l-4.391 1.672c-.299.12-.657-.03-.836-.298l-2.09-3.642a.686.686 0 0 1 .149-.895l3.643-2.956a9.545 9.545 0 0 1-.15-1.612c0-.537.06-1.074.15-1.612l-3.643-2.955a.648.648 0 0 1-.15-.865l2.091-3.642a.686.686 0 0 1 .836-.298l4.39 1.671a9.935 9.935 0 0 1 2.778-1.611l.747-4.628a.703.703 0 0 1 .686-.566h4.212c.328 0 .627.239.657.566l.747 4.628c1.015.388 1.971.925 2.807 1.611l4.36-1.671c.33-.12.687 0 .837.298l2.12 3.642c.15.298.09.657-.18.865l-3.613 2.955c.09.538.12 1.075.12 1.612a9.71 9.71 0 0 1-.12 1.612l3.614 2.956c.269.208.329.596.18.895l-2.121 3.642c-.15.268-.508.388-.836.268l-4.361-1.642a10.096 10.096 0 0 1-2.807 1.612l-.747 4.627c-.03.328-.329.567-.657.567Zm-3.644-1.373h3.046l.717-4.447c.06-.24.24-.448.478-.538a8.362 8.362 0 0 0 3.017-1.76c.179-.15.448-.21.686-.12l4.242 1.612 1.493-2.627-3.495-2.866a.67.67 0 0 1-.208-.656c.089-.568.149-1.165.149-1.762 0-.567-.06-1.164-.15-1.73a.723.723 0 0 1 .21-.687l3.494-2.836-1.493-2.627-4.242 1.612a.65.65 0 0 1-.686-.15c-.896-.775-1.912-1.372-3.017-1.73a.784.784 0 0 1-.478-.538l-.717-4.448h-3.046l-.717 4.448a.683.683 0 0 1-.448.537 8.216 8.216 0 0 0-3.016 1.732c-.21.18-.478.238-.717.15l-4.211-1.613-1.523 2.627 3.494 2.836c.209.179.298.418.239.686a8.61 8.61 0 0 0 0 3.492.628.628 0 0 1-.24.657L9.35 30.794l1.523 2.627 4.21-1.612c.24-.09.509-.03.718.12a7.89 7.89 0 0 0 3.016 1.76c.24.09.419.298.448.538l.717 4.447Z" clip-rule="evenodd"/></svg>
